X: 37647
T: Snow On The Mountain, The
R: jig
M: 6/8
K: Eminor
B|AGE EDB,|D2E D2B|AGE EDE|GAB d2B|
AGE EDB,|D2E D2E|GAB d2B|AGE E2:|
|:D|GAB d2B|A3 AGE|GAB d2B|ABd e2d|
BeB d2B|AGE EDE|GAB d2B|AGE E2:|

